X:1
T:The Wild Colonial Boy (2)
M:6/8
L:1/8
K:F
 C| F2 F G2 A| BAG c2 d| c2 A F2 F| F3 z c3/2 B/2| A2 AA-B c| d3- dd c|\
 B2 cd-c d| c2 z2 c3/2- B/2| A2 AA-B c| d2 d d2 c/2c/2| B2 cd-c d|\
 c3 z2 C| F2 F G2 A| BAG c2 d| c2 A FFF| F3 z2||
